X:153
T:Thurot
Z:Jack Campin, http://www.campin.me.uk/
F:Jack Campin's Nine-Note Tunebook
% last edit 27-02-2013
S:W.H. Gill, Manx National Songs
G:Manx ballad on an 18th century battle
M:2/4
L:1/8
Q:1/4=100
K:CMix
F/G/|AA    FA   |GF DD/E/|FD    CC|C3
A/B/|c/c/c cd   |cA GF   |GG/G/ AF|G3
A/B/|cc    cd/d/|cA GF   |G/G/G Ac|c3
d   |cA    FA/A/|GF DD/E/|FD    CC|C3|]

